Adwaita++/mimetypes/16/extension.svg

<svg height="16" viewBox="0 0 16 16" width="16" xmlns="http://www.w3.org/2000/svg">
  <path d="m6.5 1c-.8023 0-1.5.6468188-1.5 1.4492188v1.5507812h-3.0351562c-.5349 0-.9648438.3264281-.9648438.8613281v3.1386719h1.4492188c.8022999 0 1.5507812.6977 1.5507812 1.5 0 .802-.7484812 1.5-1.5507812 1.5h-1.4492188v3.033203c0 .535.4299437.966797.9648438.966797h3.0351562v-.966797c0-.802.0175-1.992203 1.5-2.033203s1.5 1.291203 1.5 2.033203v.966797h3.138672c.535 0 .861328-.431797.861328-.966797v-3.033203h1.552734c.802 0 1.447266-.698 1.447266-1.5 0-.8023-.654266-1.3767-1.447266-1.5h-1.552734v-3.1386719c0-.5349-.326328-.8613281-.861328-.8613281h-3.138672v-1.5507812c0-.8024001-.6977-1.4492188-1.5-1.4492188z" fill="#474747"/>
</svg>

<svg xmlns="http://www.w3.org/2000/svg" width="16" height="16" version="1.1" viewBox="0 0 16 16">
 <defs>
  <style id="current-color-scheme" type="text/css">
   .ColorScheme-Text { color:#474747; } .ColorScheme-Highlight { color:#5294e2; } .ColorScheme-ButtonBackground { color:#d3dae3; }
  </style>
 </defs>
 <path style="fill:currentColor" class="ColorScheme-Text" d="M 6.5 1 C 5.6977 1 5 1.6468188 5 2.4492188 L 5 4 L 1.9648438 4 C 1.4299438 4 1 4.3264281 1 4.8613281 L 1 8 L 2.4492188 8 C 3.2515187 8 4 8.6977 4 9.5 C 4 10.302 3.2515188 11 2.4492188 11 L 1 11 L 1 14.033203 C 1 14.568203 1.4299437 15 1.9648438 15 L 5 15 L 5 14.033203 C 5 13.231203 5.0175 12.041 6.5 12 C 7.9825 11.959 8 13.291203 8 14.033203 L 8 15 L 11.138672 15 C 11.673672 15 12 14.568203 12 14.033203 L 12 11 L 13.552734 11 C 14.354734 11 15 10.302 15 9.5 C 15 8.6977 14.345734 8.1233 13.552734 8 L 12 8 L 12 4.8613281 C 12 4.3264281 11.673672 4 11.138672 4 L 8 4 L 8 2.4492188 C 8 1.6468187 7.3023 1 6.5 1 z"/>
</svg>
